icons/filled/play-card-1.svg

<svg xmlns="http://www.w3.org/2000/svg" width="24" height="24" viewBox="0 0 24 24" fill="currentColor"><path d="M17 2a3 3 0 0 1 3 3v14a3 3 0 0 1 -3 3h-10a3 3 0 0 1 -3 -3v-14a3 3 0 0 1 3 -3zm.01 16h-.01a1 1 0 0 0 -.117 1.993l.127 .007a1 1 0 0 0 0 -2m-5.01 -10a1 1 0 0 0 -1 1v6a1 1 0 0 0 2 0v-6a1 1 0 0 0 -1 -1m-4.99 -4h-.01a1 1 0 0 0 -.117 1.993l.127 .007a1 1 0 1 0 0 -2"/></svg>

<svg xmlns="http://www.w3.org/2000/svg" width="24" height="24" fill="currentColor"><path d="M17 2a3 3 0 0 1 3 3v14a3 3 0 0 1-3 3H7a3 3 0 0 1-3-3V5a3 3 0 0 1 3-3zm.01 16H17a1 1 0 0 0-.117 1.993l.127.007a1 1 0 0 0 0-2M12 8a1 1 0 0 0-1 1v6a1 1 0 0 0 2 0V9a1 1 0 0 0-1-1M7.01 4H7a1 1 0 0 0-.117 1.993L7.01 6a1 1 0 1 0 0-2"/></svg>
